X:1
T:Batuque
T:Ernesto Nazareth
T:Batuque
T:Tango caracteristico
C:Ernesto Nazareth
%%score [ ( 1 2 ) ( 3 4 ) ]
L:1/8
Q:1/4=84
M:2/4
K:A
V:1 treble transpose=-12 nm="Guitare 1"
V:2 treble transpose=-12 
V:3 treble transpose=-12 nm="Guitare 2"
V:4 treble transpose=-12 
V:1
"^Moderato""^Introduction"!mp! ^ab e'g | ba gf | fe ^AB | dc fe | ^ab e'g | ba gf | gb fb | %7
 eg be' | g/d/g g/d/g/d/ | e/c/e c/A/c/A/ |"_accent. simile" d/G/d G/E/G/E/ | A/E/A c/A/c/A/ | %12
 g/d/g g/d/g/d/ | f/c/f"_Rit." ^B/A/B | [Ac]2 [^DA^B]2 |"_ten."!f! [DGB]4 || %16
S"^Un poco animato"!f! z/ E/c/A/ d/B/e/d/ | c/e/c/A/ F/A/G/B/ | A/E/c/A/ d/B/e/d/ | %19
 c/e/c/E/ F/A/G/B/ | A/c/e/a/ g/^e/c/B/ | A/c/A/F/ ^E/G/=E/^A/ | D/F/B/d/ f/e/d/c/ | %23
 B/A/G/F/ E/D/C/B,/ |!mf! z2 [GB]2 | [Ac]2 z2 | z2 [GB]2 | [Ac]2 z2 | [A,E]>[EAc] C[^EBc] | %29
 F,>[FAc] ^E=E | D>[Bd] !>!B,/!>!G,!>!F,/ | !fermata![^E,Gc]2!p!"_ben gracioso" [ce^a]a || %32
 [^dfc']b [B=dg]g | [ceb]a [A=cf]f | [Bda]g [Gdf]e | fe [ce^a]a | [^dfc']b [B=dg]g | %37
 [ceb]a [A=ce]f | [Beg]b [A^df]b | [Ge]2!p! =g/c/g/c/ | f/B/f =f/B/f/B/ | e/A/e ^d/A/d/A/ | %42
 d/A/d d/G/d/G/ ||O [EAc]/!>!F!>!=F/ =g/c/g/c/ | f/B/f =f/B/f/B/ | e/A/e e/A/e/A/ | %46
"_rall-----------------------------------------------" e/B/e e/B/e/B/ | e/B/e ^d/A/d/A/ | %48
"_a tempo" d/G/d d/A/d/A/ | d/B/d d/A/d/A/ | d/G/d d/A/d/A/ | d/B/d d/A/d/A/ | d/G/d d/G/d/G/ | %53
 B/G/B B/G/B/G/ | A/E/A A/E/A/E/ | G/E/G G/E/G/E/ || z/!f! E/c/A/ d/B/e/d/ | c/e/c/A/ F/A/G/B/ | %58
 A/E/c/A/ d/B/e/d/ | c/e/c/E/ F/A/G/B/ | A/c/e/a/ g/^e/c/B/ | A/c/A/F/ ^E/G/=E/^A/ | %62
 D/F/B/d/ f/e/d/c/ | B/A/G/F/ E/D/C/B,/ |!mf! z2 [GB]2 | [Ac]2 z2 | z2 [GB]2 | [Ac]2 z2 | %68
 A,>[EAc] C[^EBc] | z2 [FB][F^B] | [Ac]2 [A^d][G=d] |!ff! [EAc]2 z/ !>!f/!>!=g/!>!a/ || %72
[K:D]!f!"^Singelo" !>!b/^d/e/f/ g/A/B/c/ | Pd/c/d/e/ f/d/B/F/ | %74
"_poco rit.-----------------------------" E/B/c/d/ c/A/B/c/ | d/e/f/g/ a/"_a tempo"f/g/a/ | %76
!f! b/^d/e/f/ g/A/B/c/ | %77
 Pd/c/d/e/"_rit-------------------------------------------------." f/d/B/F/ | E/F/^G/A/ B.e | %79
 !>!A/!>!B/!>!c/!>!d/ !>!eA | A,>!arpeggio![GAcg] !arpeggio![GAcg]!arpeggio![GAcg] | %81
 A,>[FAdf] [FAdf][FAdf] | !>!^G>!>!G !>!=G!>!G | [A,F]>[Adf] [FAdf][FAdf] | %84
 A,>!arpeggio![GAcg] !arpeggio![GAcg]!arpeggio![GAcg] | A,[FAd] ^G,[D=FB] | %86
 A,[FA] [G,G_B]!f![A,EA] |[K:D]!ff! [DFA]A, D/!p!^D/E/^E/ || %88
[K:A]"^Misterioso" F/^E/F/A/ G/=G/^G/B/ | A/G/A/f/ e/f/e/f/ | e/G/!>!b/G/ e/A/!>!c'/^A/ | %91
 !>![Bege']2 z2 || %92
"_a tempo"!f! z/ !arpeggio![Aca]/!arpeggio![Aca]/!arpeggio![Aca]/ z/ !arpeggio![Acg]/!arpeggio![Acg]/!arpeggio![Acg]/ | %93
"_simile" z/ [Bdf]/[Bdf]/[Bdf]/ z/ [Bdg]/[Bdg]/[Bdg]/ | %94
 z/ [Aca]/[Aca]/[Aca]/ z/ [Acg]/[Acg]/[Acg]/ | z/ [Bdf]/[Bdf]/[Bdf]/ z/ [Bdg]/[Bdg]/[Bdg]/ | %96
"_cresc." z/ [eac']/[eac']/[eac']/ z/ [c^eb]/[ceb]/[ceb]/ | %97
 z/ [cfb]/[cfb]/[cfb]/ z/ [cfa]/[cfa]/[cfa]/ | z/ [^dfc']/[dfc']/[dfc']/ z/ [dfb]/[dfb]/[dfb]/ | %99
"_rit." z/ [Bda]/[Bda]/[Bda]/ z/ [Bdg]/[Bdg]/[Bdg]/ | %100
"_a tempo" z/ [Aca]/[Aca]/[Aca]/ z/ [Acg]/[Acg]/[Acg]/ | %101
 z/ [Bdf]/[Bdf]/[Bdf]/ z/ [Bdg]/[Bdg]/[Bdg]/ | z/ [Aca]/[Aca]/[Aca]/ z/ [Acg]/[Acg]/[Acg]/ | %103
 z/ [Bdf]/[Bdf]/[Bdf]/ z/ [Bdg]/[Bdg]/[Bdg]/ | %104
"_cresc." z/ [eac']/[eac']/[eac']/ z/ [c^eb]/[ceb]/[ceb]/ | %105
 z/ [cfb]/[cfb]/[cfb]/ z/ [A=cf]/[Acf]/[Acf]/ | z/ [Ace]/[Ace]/[Ace]/ z/ [Bde]/([Bde]/[Bd]/) | %107
 !>!A/!>!c/!>!d/!>!^d/ !>!e2 |"_Suave"!p! A,>[Ace] C[Ace] | (B,/e/)d/G/ E/D/G,/E,/ | %110
 A,>[Ace] C[Ace] | (B,/e/d/G/ E/D/G,/E,/) | A,>[EAc] G,[^EBc] |!f! (F,/C/F/A/ c/f/!>!A/!>!^A/) | %114
!f! !>!B,>!>![^DFB] !>!A,!>![DFB] | (G,/e/d/B/ G/E/D/B,/) |"_Suave" A,>[Ace] C[Ace] | %117
 (B,/e/d/G/ E/D/G,/E,/) | A,>[Ace] C[Ace] | (B,/e/d/G/ E/D/G,/E,/) | A,>[EAc] G,[^EBc] | %121
 F,>[FAc] ^D[A=cf] | E,>[EAc] E,[DGB] | [CEA]2 z/!f! !>!f/!>!=g/!>!a/ || %124
[K:D]!f!"^Singelo" !>!b/^d/e/f/ g/A/B/c/ | Pd/c/d/e/ f/d/B/F/ | %126
"_poco rit.-----------" E/B/c/d/ c/A/B/c/ | d/e/f/g/ a/"_a tempo"f/g/a/ | b/^d/e/f/ g/A/B/c/ | %129
 Pd/c/d/e/"_rit-------------------------------------------------." f/d/B/F/ | E/F/^G/A/ B.e | %131
 !>!A/!>!B/!>!c/!>!d/ !>!eA | A,>!arpeggio![GAcg] !arpeggio![GAcg]!arpeggio![GAcg] | %133
 A,>[FAdf] [FAdf][FAdf] | !>!^G>!>!G !>!=G!>!G | [A,F]>[Adf] [FAdf][FAdf] | %136
 A,>!arpeggio![GAcg] !arpeggio![GAcg]!arpeggio![GAcg] | A,[FAd] ^G,[D=FB] | %138
 A,[FA] [G,G_B]!f![A,EA] | [DFA]!>!A, !>!D2 ||[K:A] A,/e'/c'/e'/ b/d'/g/b/ | a/c'/f/a/ g/b/e | %142
 z2 [Bdg]2 | [Ac]2 z2 | A,/e/c/e/ B/d/G/B/ | A/c/F/A/ G/B/E | z2 [GB]2 | [Ac]2 z2!D.S.! || %148
O !>![A,EAc]/!>!F!>!=F/ !>!F,!>![E^A] | !>!B,>!>![FA^d] !>!^E,!>![GB] | %150
 !>!F,>!>![FAc] !>!^D!>![A=cf] | !>![EAce]4 | .E,2 z2 ||"_Final Presto" z [F^Ac] [=ABf][GBe] | %154
 [Acea]2 z2 | [eac'a']2 z2 |{/!fermata!A,} !fermata!A4 |] %157
V:2
 d>d z2 | c>c z2 | G>G z2 | E>E z2 | d>d z2 | c>c z2 | B>B z2 | e>G z2 | !>![A,E]>!>!A,- A,2 | %9
 !>![A,E]>!>!A,- A,2 | [A,E]>A,- A,2 | [A,E]>A,- A,2 | [A,E]>A,- A,2 | [F,A]>F ^D>D | %14
 !>!E2 !>!E,2 | E,4 || A,2 z2 | x4 | x4 | x4 | x4 | x4 | x4 | x4 | !>![A,E]>!>![A,E]- [A,E]2 | %25
 !>![A,E]>!>![A,E]- [A,E]2 | !>![A,E]>!>![A,E]- [A,E]2 | !>![A,E]>!>![A,E]- [A,E]2 | x4 | x4 | x4 | %31
 x4 || x4 | x4 | x4 | c/A/c/A/ x2 | x4 | x4 | x4 | z/ C/D/^D/ E2 | ^D>D =D2 | C>C =C2 | %42
 B,>B, E,2 || A,/ z/ z E2 | ^D>D =D2 | C>C =C2 | B,>B, B,2 | B,>B, B,2 | E,>E, F,2 | G,>G, F,2 | %50
 E,>E, F,2 | G,>G, F,2 | E,>E E2 | D>D- DD | C>C- CC | B,>B,- B,B, || A,2 z2 | x4 | x4 | x4 | x4 | %61
 x4 | x4 | x4 | !>![A,E]>!>![A,E]- [A,E]2 | !>![A,E]>!>![A,E]- [A,E]2 | !>![A,E]>!>![A,E]- [A,E]2 | %67
 !>![A,E]>!>![A,E]- [A,E]2 | x4 | F,>[Ac] D^D | EC B,E, | A,2 z2 ||[K:D] x4 | x4 | x4 | x4 | x4 | %77
 x4 | x4 | x4 | x4 | x4 | A,2 A,2 | x4 | x4 | x4 | x4 |[K:D] x4 ||[K:A] x4 | x4 | x4 | x4 || %92
 !>!A z !>!A z | !>!B z !>!B z | A z A z | B z B z | A z G z | F z F z | B z B z | E z E z | %100
 A z A z | B z B z | A z A z | B z B z | A z G z | F z ^D x | E z E z | C z z !>!E, | x4 | x4 | %110
 x4 | x4 | x4 | x4 | x4 | x4 | x4 | x4 | x4 | x4 | x4 | x4 | x4 | x4 ||[K:D] x4 | x4 | x4 | x4 | %128
 x4 | x4 | x4 | x4 | x4 | x4 | A,2 A,2 | x4 | x4 | x4 | x4 | x4 ||[K:A] x4 | x4 | %142
 [A,E]>[A,E]- [A,E]2 | [A,E]>[A,E]- [A,E]2 | x4 | x4 | [A,E]>[A,E]- [A,E]2 | [A,E]>[A,E]- [A,E]2 || %148
 x4 | x4 | x4 | x4 | x4 || x4 | x4 | x4 | x4 |] %157
V:3
!p! g/d/g g/d/g/d/ | e/c/e c/A/c/A/ | d/G/d G/E/G/E/ | A/E/A c/A/c/A/ | g/d/g g/d/g/d/ | %5
 e/c/e e/c/e/=c/ | e/B/e ^d/A/d/A/ | d/G/d [Gd]<e | ^ab e'g | ba gf | fe ^AB | dc fe | ^ab e'g | %13
 ba gf | e2 f2 |!f! g4 ||!mf! z2 [GB]2 | [Ac]2 z2 | z2 [GB]2 | [Ac]2 z2 | %20
 !>![A,E]>!>![EAc] !>!C!>![^EBc] | !>!F,>!>![FAc] ^E!>!=E | B,>[FBd] D[FBd] | d/c/B/A/ G/F/E/D/ | %24
!f! z/ E/c/A/ d/B/e/d/ | c/e/c/A/ F/A/G/B/ | A/E/c/A/ d/B/e/d/ | c/e/c/E/ F/A/G/B/ | %28
 A/c/e/a/ g/^e/c/B/ | A/c/A/F/ ^E/G/=E/^A/ |!f! B/c/d/e/"_cresc." f/g/a/b/ | %31
!ff! !fermata![^egc']2!p! =g/c/g/c/ || f/B/f =f/B/f/B/ | e/A/e ^d/A/d/A/ | d/A/d d/G/d/G/ | %35
 [EAc]/!>!F!>!=F/ =g/c/g/c/ | f/B/f =f/B/f/B/ | e/A/e e/A/e/A/ | e/B/e ^d/A/B/A/ | %39
 [EGB]2!p! [ce^a]a | [^dfc']b [B=dg]g | [ceb]a [A=cf]f | [Bda]g [Gdf]e || fe [ce^a]a | %44
 [^dfc']b [B=dg]g | [ceb]a [A=ce]f | [eg]b [e=g]b | [Bef]b [B^df]b | [de]!>!g [de]!>!a | %49
 [de]!>!b [de]!>!a | [de]!>!g [de]!>!a | [de]!>!b [de]!>!a | [de]!>!g [de]!>!g | %53
 [GB]!>!f [GB]!>!f | [Ac]!>!e [Ac]!>!e | [Gd]!>!e [Gd]!>!e ||!mf! z2 [GB]2 | [Ac]2 z2 | z2 [GB]2 | %59
 [Ac]2 z2 | !>![A,E]>!>![EAc] !>!C!>![^EBc] | !>!F,>!>![FAc] ^E!>!=E | B,>[FBd] D[FBd] | %63
 d/c/B/A/ G/F/E/D/ | z/!f! E/c/A/ d/B/e/d/ | c/e/c/A/ F/A/G/B/ | A/E/c/A/ d/B/e/d/ | %67
 c/e/c/E/ F/A/G/B/ | A/c/e/a/ g/^e/c/B/ | A/c/A/F/ B/"_cresc."g/a/b/ | %70
 c'/d'/^d'/e'/ ^e'/f'/=g'/^g'/ |!ff! a'2 z2 || %72
[K:D] A,>!arpeggio![GAcg] !arpeggio![GAcg]!arpeggio![GAcg] |"_simile" A,>[FAdf] [FAdf][FAdf] | %74
 !>!^G>!>!G !>!=G!>!G | !>![A,F]>[FAdf] [FAdf][FAdf] | %76
 A,>!arpeggio![GAcg] !arpeggio![GAcg]!arpeggio![GAcg] | A,>[FAdf] [FAdf][FAdf] | c2 [^Gd]2 | %79
 [GA]>E A,/"^a tempo"!>!f/!>!g/!>!a/ | !>!b/^d/e/f/ g/A/B/c/ | Pd/c/d/e/ f/d/B/F/ | %82
"_poco rit.-----------------------------" E/B/c/d/ c/A/B/c/ | d/e/f/g/ a/"_a tempo"f/g/a/ | %84
 b/^d/e/f/ g/A/B/c/ | Pd/c/d/e/"_rit." =f/d/B/^G/ |"_accel." A/B/c/d/ [G_B_e]!f![Ac=ea] | %87
[K:D]!ff! [Adfd']2 z2 ||[K:A]!p! ^D>D =DD | z2 [Ace][Ace] | (E/^D/E/^E/ F/E/F/^^F/) | %91
 !>![Gd]2 z2 ||!mf! !>!A,>[EAc]- [EAc]/(G,/A,/^A,/ | !>!B,>)!>![Bde] !>!E,!>![Gde] | %94
 !>!A,>[EAc]- [EAc]/(G,/A,/)^A,/ | !>!B,>!>![Bde] !>!E,!>![Gde] | !>!A,>[EAc] !>!G,[^EBc] | %97
 !>!F,>[FAc]- [FAc]/(G,/A,/^A,/ | !>!B,>)[FA^d] !>!A,>[^DAB] | !>!G,>[EBd] !>!E,>[EGd] | %100
 !>!A,>[EAc]- [EAc]/(G,/A,/)^A,/ | !>!B,>!>![Bde] !>!E,!>![Gde] | !>!A,>[EAc]- [EAc]/(G,/A,/)^A,/ | %103
 !>!B,>!>![Bde] !>!E,!>![Gde] | !>!A,>[EAc] !>!G,[^EBc] | !>!F,>[FAc] ^D[A=cf] | E,>[EAc] E,[DGB] | %107
 !>![A,EA]/!>!C/!>!D/!>!^D/ !>!E2 | %108
!mp! z/ !arpeggio![Aca]/!arpeggio![Aca]/!arpeggio![Aca]/ z/ [Acg]/[Acg]/[Acg]/ | %109
 z/ [Bdf]/[Bdf]/[Bdf]/ z/ [Bdg]/[Bdg]/[Bdg]/ | z/ [Aca]/[Aca]/[Aca]/ z/ [Acg]/[Acg]/[Acg]/ | %111
 z/ [Bdf]/[Bdf]/[Bdf]/ z/ [Bdg]/[Bdg]/[Bdg]/ | %112
"_cresc." z/ [eac']/[eac']/[eac']/ z/ [c^eb]/[ceb]/[ceb]/ | %113
!f! z/ [cfb]/[cfb]/[cfb]/ z/ [cfa]/[cfa]/[cfa]/ | %114
 z/!ff! [^dfc']/[dfc']/[dfc']/ z/ [dfb]/[dfb]/[dfb]/ | %115
"^dim." z/ [Bdgc']/[Bdgc']/[Bdgc']/ z/ [Bdgb]/[Bdgb]/[Bdgb]/ | %116
!mp! z/ !arpeggio![Aca]/!arpeggio![Aca]/!arpeggio![Aca]/ z/ [Acg]/[Acg]/[Acg]/ | %117
 z/ [Bdf]/[Bdf]/[Bdf]/ z/ [Bdg]/[Bdg]/[Bdg]/ | z/ [Aca]/[Aca]/[Aca]/ z/ [Acg]/[Acg]/[Acg]/ | %119
 z/ [Bdf]/[Bdf]/[Bdf]/ z/ [Bdg]/[Bdg]/[Bdg]/ | %120
"^cresc." z/ [eac']/[eac']/[eac']/ z/ [c^eb]/[ceb]/[ceb]/ | %121
 z/ [cfb]/[cfb]/[cfb]/ z/ [A=cf]/[Acf]/[Acf]/ | z/ [Ace]/[Ace]/[Ace]/ z/ [Bde]/([Bde]/[Bd]/) | %123
 A,[cea] A,2 ||[K:D] A,>!arpeggio![GAcg] !arpeggio![GAcg]!arpeggio![GAcg] | %125
 A,>[FAdf] [FAdf][FAdf] | !>!^G>!>!G !>!=G!>!G | !>![A,F]>[FAdf] [FAdf][FAdf] | %128
 A,>!arpeggio![GAcg] !arpeggio![GAcg]!arpeggio![GAcg] | A,>[FAdf] [FAdf][FAdf] | c2 [^Gd]2 | %131
 [GA]>E A,/"^a tempo"!>!f/!>!g/!>!a/ | !>!b/^d/e/f/ g/A/B/c/ | Pd/c/d/e/ f/d/B/F/ | %134
"_poco rit.-----------------------------" E/B/c/d/ c/A/B/c/ | d/e/f/g/ a/"_a tempo"f/g/a/ | %136
 b/^d/e/f/ g/A/B/c/ | d/c/d/e/"_rit." =f/d/B/^G/ |"_accel." A/B/c/d/ [G_B_e]!f![Ac=ea] | %139
 [Adfd']4 ||[K:A] z2 [Bdg]2 | [Ace]2 z2 | A,/e'/c'/e'/ b/d'/g/b/ | a/c'/f/a/ g/b/e | z2 [GB]2 | %145
 [Ac]2 z2 | A,/e/c/e/ B/d/G/B/ | A/c/F/A/ G/B/E || f/A/e/A/!ff! ^B/E/c/E/ | g/A/f/A/ ^A/D/B/D/ | %150
"_Sempre" d/F/c/F/ a/=c/f/c/ | !>![E,Ace]4- | [E,Ace]4 || z [F^A] [B,=A][EG] | [A,A]2 z2 | %155
 [A,EAcea]2 z2 |{/!fermata!A,} !fermata!A4 |] %157
V:4
 !>![A,E]>!>!A,- A,2 | !>![A,E]>!>!A,- A,2 | !>![A,E]>!>!A,- A,2 | !>![A,E]>!>!A,- A,2 | %4
 !>![A,E]>!>!A,- A,2 | !>![A,E]>!>!A,- A,2 | !>![B,G]>!>!B,- B,2 | E>B, E,2 | d>d z2 | c>c z2 | %10
 G>G z2 | E>E z2 | d>d z2 | [Ac]>c g>A | [Ac]2 [A^B]2 | [Be]4 || !>![A,E]>!>![A,E]- [A,E]2 | %17
 !>![A,E]>!>![A,E]- [A,E]2 | !>![A,E]>!>![A,E]- [A,E]2 | !>![A,E]>!>![A,E]- [A,E]2 | x4 | x4 | x4 | %23
 E,2 z2 | A,2 z2 | x4 | x4 | x4 | x4 | x4 | x4 | z2 E2 || ^D>D =D2 | C>C =C2 | B,>B, E,2 | %35
 A,/ z/ z E2 | ^D>D =D2 | C>C =C2 | B,>B, B,2 | x4 | x4 | x4 | x4 || c/A/c/A/ x2 | x4 | x4 | x4 | %47
 x4 | x4 | x4 | x4 | x4 | x4 | x4 | x4 | x4 || !>![A,E]>!>![A,E]- [A,E]2 | %57
 !>![A,E]>!>![A,E]- [A,E]2 | !>![A,E]>!>![A,E]- [A,E]2 | !>![A,E]>!>![A,E]- [A,E]2 | x4 | x4 | x4 | %63
 E,2 z2 | A,2 z2 | x4 | x4 | x4 | x4 | x4 | x4 | x4 ||[K:D] x4 | x4 | A,2 A,2 | x4 | x4 | x4 | %78
 E,>E E,E | x4 | x4 | x4 | x4 | x4 | x4 | x4 | x4 |[K:D] x4 ||[K:A] E,2 E,2 | [E,C]>E,- E,2 | x4 | %91
 x4 || x4 | x4 | x4 | x4 | x4 | x4 | x4 | x4 | x4 | x4 | x4 | x4 | x4 | x4 | x4 | x4 | A, z A z | %109
 B, z E z | A, z A z | B, z E z | A z G z | F z F z | B, z A z | E, z E z | A, z A z | B, z E z | %118
 A, z A z | B, z E z | A z G z | F z ^D x | E z E z | x4 ||[K:D] x4 | x4 | A,2 A,2 | x4 | x4 | x4 | %130
 E,>E E,E | x4 | x4 | x4 | x4 | x4 | x4 | x4 | x4 | x4 ||[K:A] [A,E]>[A,E]- [A,E]2 | %141
 [A,E]>[A,E]- [A,E]2 | x4 | x4 | [A,E]>[A,E]- [A,E]2 | [A,E]>[A,E]- [A,E]2 | x4 | x4 || x4 | x4 | %150
 x4 | x4 | x4 || x4 | x4 | x4 | x4 |] %157

